X: 16847
T: Harvest Moon
R: reel
M: 4/4
K: Aminor
||e ~A3~A2BA|G~E3 GA (3.Bcd|e~A3 cdeg|{^g}a2 =ge dz gf|
! e ~A3 .AcBA|GEDE ~G3 B|ez af gedB|GA B^G A2 Bd|
eA z.A A2 BA|G~E3 GA (3.Bcd|ez~A2 cdeg|{^g}a2 =ge d3 z|
e~A3 .AcBA|GEDE ~G3 z|~e2 af gedB|GA B^G A2 zd||
cBcd e ~g3|ea{g}a^f ~g2 ed|cBcd e~g3|~a2ge d2zd|
cBcd e ~g3|ea{g}a^f ~g2ed|B~E3 GEDE|GAB^G ~A3 z|
cBcd e ~g3|ea{g}a^f ~g2 ed|cBcd e~g3|~a2ge ~d3z|
cBcd e~g3|ea{g}ab ~g3z|c'bag _bage|.gab^g ~a3 z||

